src/icons/solid/status/alert.svg

<svg width="24" height="24" viewBox="0 0 24 24" fill="none" xmlns="http://www.w3.org/2000/svg">
<g clip-path="url(#clip0_1_2059)">
<path fill-rule="evenodd" clip-rule="evenodd" d="M7.03 1.20988C7.16 1.07988 7.34 0.999878 7.53 0.999878L12 1L16.47 0.999878C16.66 0.999878 16.84 1.07988 16.97 1.20988L22.81 7.24988C22.93 7.37988 23 7.54988 23 7.72988V16.2699C23 16.4499 22.93 16.6199 22.81 16.7499L16.97 22.7899C16.84 22.9199 16.66 22.9999 16.47 22.9999H7.53C7.34 22.9999 7.16 22.9199 7.03 22.7899L1.19 16.7499C1.07 16.6199 1 16.4499 1 16.2699V7.72988C1 7.54988 1.07 7.37988 1.19 7.24988L7.03 1.20988ZM12 17.8199C11.18 17.8199 10.51 17.1499 10.51 16.3299C10.51 15.5099 11.18 14.8399 12 14.8399C12.82 14.8399 13.49 15.5099 13.49 16.3299C13.49 17.1499 12.82 17.8199 12 17.8199ZM13.14 5.67988C13.14 5.04988 12.63 4.52988 11.99 4.52988C11.35 4.52988 10.84 5.03988 10.84 5.67988V12.3299C10.84 12.9599 11.35 13.4799 11.99 13.4799C12.63 13.4799 13.14 12.9699 13.14 12.3299V5.67988Z" fill="#1D1B20"/>
</g>
<defs>
<clipPath id="clip0_1_2059">
<rect width="24" height="24" fill="white"/>
</clipPath>
</defs>
</svg>

<svg xmlns="http://www.w3.org/2000/svg" width="24" height="24" fill="none" viewBox="0 0 24 24"><g clip-path="url(#a)"><path fill="currentColor" fill-rule="evenodd" d="M7.03 1.21c.13-.13.31-.21.5-.21h8.94c.19 0 .37.08.5.21l5.84 6.04c.12.13.19.3.19.48v8.54c0 .18-.07.35-.19.48l-5.84 6.04c-.13.13-.31.21-.5.21H7.53c-.19 0-.37-.08-.5-.21l-5.84-6.04a.7.7 0 0 1-.19-.48V7.73c0-.18.07-.35.19-.48zM12 17.82c-.82 0-1.49-.67-1.49-1.49s.67-1.49 1.49-1.49 1.49.67 1.49 1.49-.67 1.49-1.49 1.49m1.14-12.14a1.15 1.15 0 0 0-2.3 0v6.65a1.15 1.15 0 0 0 2.3 0z" clip-rule="evenodd"/></g><defs><clipPath id="a"><path fill="currentColor" d="M0 0h24v24H0z"/></clipPath></defs></svg>
